X: 9
T: LE P'TIT BAL DE LA MARINE
M: 3/4
L: 1/8
Q:1/4=60
K:G
|A/2c/2e/2a/2c'/2b3/2a/2e/2c/2|B3/2A/2B/2c/2 BA2|A/2A/2c/2e/2a/2c'/2 b3/
2a/2e/2c/2|B3/2A/2B/2c/2 BA2|
A/2ed2d/2d/2e/2=f/2e/2|d/2=f/2d/2e/2=f/2e/2 d/2a/2d/2e/2=f/2e/2|d/2e/2c/
2d/2e/2d/2 c/2a/2c/2d/2e/2d/2|c/2B3BcB|
A3 A/2GAB|AGF EB,|D3 DGA|BAG FED|
C3 Cc/2B/2c/2d/2|c2B AB/2A/2B/2c/2|B2A GGA|BAG FEF|
GDB, G/2|
